X:1
T: Lord Elphinston's Reel
C:
R:Reel
Q: 232
K:Am
M:4/4
L:1/8
|:a|ge ec de ga|ge ec dc BG|ge ec de fd|ed e^g aA Aa|
ge ec de ga|ge ec dc BG|ge ec de fd|ed e^g aA AB|
c2 ce d2 de|c2 ce d1/2c1/2B1/2A1/2 BG|c2 ce d2 de|ed e^g aA AB|
ce ge da gf|ec ge dg BG|ce ge da gf|ea ^gb aA A:|
